X:1
T:Ständchen
T:Ernst David Wagner
T:Siegfried August Mahlmann
T:Ständchen
T:Op. 4, Nr. 2
T:CPDL - Creative Commons Attribution Non Commercial 3.0
T:CPDL - Creative Commons Attribution Non Commercial 3.0
T:CPDL - Creative Commons Attribution Non Commercial 3.0
C:Ernst David Wagner
Z:Siegfried August Mahlmann
Z:CPDL - Creative Commons Attribution Non Commercial 3.0
%%score [ ( 1 2 ) ( 3 4 ) ]
L:1/8
Q:1/4=90
M:6/8
K:A
V:1 treble-8 nm="Tenor"
V:2 treble-8 
V:3 bass nm="Bass"
V:4 bass 
V:1
"^Allegretto"!p! A |{c} c2 c edc | fe^d e2 e | (eB)B edc |!<(! B3-!<)! B2 B |"^cresc." (^dc)B Bcd | %6
w: 1.~Horch|auf! es flüs- tert der|A- * bend- wind, die|Nach- ti- gall lockt _ im|Tal, _ am|Him- mel hoch o- ben ver-|
w: 2.~Ich|we~~\-~~cke mein Lieb- chen, bei|stil- * ler Nacht, mit|Sang _ und Sai- * ten-|spiel; _ ein|Lied- * chen hab' ich mir|
w: 3.~Am|Him- mel jeg- li- ches|Stern- * lein geht selb-|an- * der sei- * ne|Bahn; _ das|Wie- * sen- blüm- chen wohl|
w: ~4.~Sie|kommt! sie naht sich! o|Göt- * ter- lust! Ihr|Stern- * lein, schim- * mert|all; _ was|klopfst _ du, Herz, _ in|
 e2 B gfe | ^dcB Bcd |!<(! e3-!<)! ef!p!c | (!>!ed)d | (!>!ed)d | d2 c c2 c | (!>!ed)d (fe)d | %13
w: sam- melt sind _ die|Stern- * lein all- * zu-|mal, _ _ und|un- ten am|Ba- che die|Blüm- lein klein, sie|ni- cken und schla- fen bei-|
w: aus- ge- dacht, _ wär|froh, _ wenn's ihr _ ge-|fiel! _ _ Ach!|ein- * sam|wird _ die|Nacht so lang, was|bleibt _ mir an- ders, als|
w: lus- tig steht, _ hat's|Lieb- * chen ne- * ben|an; _ _ und|je- * des|sieht _ mich|an und spricht: Wo|weilt _ dein Lieb- chen, ach!|
w: fro- her Brust? _ was|lockst _ du, Nach- * ti-|gall? _ _ Er-|glänz' _ in|tau- * send|Him- mels- pracht, er-|glänz' _ um mich, _ o|
 d2 c"^cresc." cde |!f! (f3 (e2) e) |!>(! (^d3 =d2-) d!>)! | (c3 =c2) c | B3- B2!p! B | ^c3- c2 c | %19
w: sam- men ein, _ und|un- ten am|Ba- che die|Blüm- * lein|klein, _ sie|ni- cken und|
w: Sing und Sang, _ ach,|ein- sam _|wird _ die|Nacht _ so|lang, _ was|bleibt _ mir|
w: kommt es nicht? _ und|je- * des|sieht mich _|an _ und|spricht: _ Wo|weilt _ dein|
w: sü- ße Nacht, _ er-|glänz' _ in|tau- send _|Him- * mels-|pracht, _ er-|glänz' _ um|
 (e3 A2) B |!<(! c3-!<)!!>(! c2 B!>)! | A3- A2 |] %22
w: schla- fen bei-|sam- * men|ein. _|
w: an- ders, als|Sing _ und|Sang? _|
w: Lieb- chen, ach!|kommt _ es|nicht? _|
w: mich, _ o|sü- * ße|Nacht! _|
V:2
 E |{A} A2 A cBA | A2 A A2 c | B-BB cBA | (GBA GA)B | (AA)A AAA | GBA GAB | A2 A A2 A | G3 GA^A | %9
 (cB)B | (cB)B | B2 A A2 A | (cB)B (dc)B | B2 A A2 A | (A3 (A2) A) | (A3 G2-) G | A3- A2 A | %17
 G3- G2 G | A3- A2 A | A3- A2 A | (A3 G2) G | A3- A2 |] %22
V:3
!p! C, |{E,} E,2 E, E,E,E, | D,C,^B,, C,E,A, |{G,} G,2 G, A,2 E, |!<(! (E,G,F,!<)! E,F,)G, | %5
w: |||||
w: |||||
w: |||||
w: |||||
"^cresc." (F,E,)^D, D,E,F, | E,G,F, E,F,G, | F,E,^D, D,E,F, |!<(! E,3!<)! E,2!p! E, | (E,E,)E, | %10
w: |||||
w: |||||
w: |||||
w: |||||
 (E,E,)E, | E,2 E, E,2 E, | E,-E,E, E,-E,E, | E,2 E,"^cresc." E,2 E, |!f! (D,3 (E,2) E,) | %15
w: ||Blüm- * lein klein, * sie|ni- cken ein, *||
w: ||Nacht * so lang, * die|Nacht so lang, *||
w: ||an * und spricht: * ach!|kommt es nicht? *||
w: ||Him- * mels- pracht, * o|sü- ße Nacht, *||
!>(! (F,3 E,2-) E,!>)! | (E,3 F,2) F, | G,3- G,2!p! E, | E,3- E,2 E, | (E,3 F,2) F, | %20
w: |||||
w: |||||
w: |||||
w: |||||
!<(! E,3-!<)!!>(! E,2 D,!>)! | C,3- C,2 |] %22
w: ||
w: ||
w: ||
w: ||
V:4
 A,, |{A,,} A,,2 A,, A,,A,,A,, | A,,2 A,, A,,2 A,, |{E,} E,2 E, E,2 E, | E,3- E,2 E, | %5
w: |||||
w: |||||
w: |||||
w: |||||
 (B,,B,,)B,, B,,B,,B,, | E,2 E, E,2 E, | B,,2 B,, B,,2 B,, | E,3 E,2 z | z3 | z2 G,, | %11
w: |||||und|
w: |||||Ach!|
w: |||||und|
w: |||||Er-|
 A,,-A,,C, (E,C,)A,, | G,,2 G,, G,,2 G,, | A,,2 A,, A,,B,,C, | (D,3 (C,2) C,) | (B,,3 E,2-) E, | %16
w: un- ten am Ba- che die|||||
w: ein- * sam wird _ die|||||
w: je- * des sieht _ mich|||||
w: glänz' _ in tau- * send|||||
 (E,3 ^D,2) D, | E,3- E,2 E, | A,,3- A,,2 A,, | (C,3 D,2) ^D, | E,3- E,2 E, | A,,3- A,,2 |] %22
w: ||||||
w: ||||||
w: ||||||
w: ||||||

